X: 17217
T: Her Golden Hair Was Curling Down
R: hornpipe
M: 4/4
K: Dmajor
(3ABc|dfed BAFA|dfed B2de|fAAf edBA|Beef e2 (3ABc|
dfed BAFA|dfed B2de|fAAf edBA|d2 d2 d2||
dB|A2 A2 f2 fe|dedB A2 A2|G2 GA B2 ed|c2 c2 c2 Bc|
dfed BAFA|dfed B2de|fAAf edBA|d2 d2 d2||

